!! 00000] TT[00
!! NN
!!!OTL: Yu e lang
!!!ARE: Asia, China,ÿShandong, Zibuo
!! Ethnic Group: Han
!! III, 402
!!!SCT: C0315
!!!YEM: Copyright 1995, estate of Helmut Schaffrath.
**kern
*ICvox
*Ivox
*M4/4
*k[f#]
*G:
{1b
=1
1dd
=2
1e}
=3
{8b
8ee
8dd
8b
4.g
16a
16b
=4
2g}
{8f#
8e
8d
8e
=5
4.g
16a
16b
2g}
=6
{8.dd
16ee
8dd
8ee
8gg
8aa
8gg
8ee
=7
8dd
8gg
8ee
8dd
8.b
16dd
4b
=8
2a}
{8b
8dd
8b
8a
=9
4.g
16a
16b
2g}
=10
{8a
8r
8b
8r
8f#
8e
8d
8e
=11
4.g
16a
16b
2g}
=12
{8a
8r
8b
8r
8f#
8e
8d
8e
=13
4.g
16a
16b
2g}
=14
{8b
8a
8dd
8a
4.b
8r
=15
4dd
8ee
8gg
4dd
4f#}
=16
{4e
4e
8ee
8b
8a
8e
=17
4.d
16e
16g
2d}
=18
{4e
8g
8d
4e
4g
=19
4dd
4ee
4dd
4f#}
=20
{4e
4e
8e
8b
8a
8e
=21
8g
4d
8e
2d}
=22
{8.dd
16ee
8dd
8ee
8.gg
16aa
8gg
8ee
=23
8.dd
16gg
8ee
8dd
16b
16dd
16b
16dd
4b}
=24
{2a
8b
8dd
8b
8a
=25
4.g
16a
16b
2g}
=26
{8f#
8e
8d
8e
4.g
16a
16b
=27
2g}
{4a
8b
8dd
=28
8f#
8e
8d
8e
4.g
16a
16b
=29
2g}
{8a
8r
4b
=30
8f#
8e
8d
8e
4.g
16a
16b
=31
2g}
{4b
8dd
8a
=32
4b
4b
8.dd
16ee
8dd
8ee
=33
8gg
8aa
8gg
8ee
8dd
8gg
8ee
8dd}
=34
{2b
2a
=35
8.b
16dd
8b
8a
4.g
16a
16b
=36
2g}
{8f#
8r
8f#
8r
=37
8f#
8e
8d
8e
4.g
16a
16b
=38
2g}
{8a
8r
4b
=39
8f#
8e
8d
8e
4.g
16a
16b
=40
2g}
{4b
8dd
8a
=41
4b
4b
4dd
4ee
=42
4dd
8f#
8r}
{4e
8e
8r
=43
8e
8b
8a
8e
4.d
16e
16g
=44
2d}
{4dd
8dd
8a
=45
4b
4b
4dd
4ee
=46
4dd
8f#
8r}
{4e
8e
8r
=47
8e
8b
8a
8e
4.d
16e
16g
=48
1d}
==
!!!AGN: Xiaodiao, Liqu. Youzi sixiang
!! Die Melodie ist aus verschiedenen kleinen Stuecken zusammengesetzt.
!!    Pu Songli war ein beruehmter Schriftsteller, der ueber gute Geister
!!    Geschichten fuer Doerfer geschrieben hat. Ausserdem verfasste er
!!    auch Romane und Liedtexte, meist Xiaodiao.
!!    Einige Verzierungen, Glissandi.   PHRASIERUNG pruefen, ggfs. teilen!
!!    +++Das Lied ist zu lang. Die letzten beiden Phrasen werden noch einmal
!!    wiederholt.  Teilen!? ....    ,  aber: 1. Ton statt 3  5!)
!!    In der 2.-4. Strophe ist die erste Phrase kuerzer: 3__5__-6___(1 Takt!)
!!!ONB: ESAC (Essen Associative Code) Database: CHINA
!!!AMT: simple quadruple
!!!AIN: vox
!!!EED: Helmut Schaffrath
!!!EEV: 1.0
*-
